X:3
T:Who supplies This food surprise!
M:4/4
L:1/8
Q:1/4=128
K:G
|: G,2 B,D G2 BG | D2 F,A, D2 FD | E2 G,B, E2 GE | C2 E,G, C2 EC :|
| g d B G D B, G, D, | f d A F D A, F, D, | e B G E B, G, E, B,, | c G E C G, E, C, G,, |
